X: 9142
T: Dairy Maid, The
R: slide
M: 12/8
K: Adorian
AcA AcA BdB BAG|AcA AcA B3 g3|
AcA AcA BdB BAG|gfe dcB A3 E3|
AcA AcA BdB BAG|AcA AcA B3 g3|
AcA AcA BdB BAG|gfe dcB A3 f3||
g2e e2f gfe dcB|g2e e2f g3 a2f|
g2e e2f gfe dcB|ege dcB A3 f3|
g2e e2f gfe dcB|g2e e2f g3 a3|
b2g a2f gfe dcB|gfe dcB A3 E3||

